UI/Travel-Transport-Tracking/SVG/navigation_solid_16px.svg

<svg width="16" height="16" viewBox="0 0 16 16" fill="none" xmlns="http://www.w3.org/2000/svg">
<path d="M8.00003 3.56001L12.74 13.38L9.00003 11.81L8.90003 11.76H8.79003C8.53352 11.6823 8.26792 11.6386 8.00003 11.63V3.56001ZM8.00003 1.00001C7.87155 0.999347 7.74544 1.03457 7.6359 1.10171C7.52636 1.16884 7.43775 1.26523 7.38003 1.38001L1.85003 13C1.75028 13.21 1.70439 13.4415 1.7165 13.6737C1.72862 13.9058 1.79835 14.1313 1.91941 14.3298C2.04048 14.5282 2.20906 14.6934 2.40994 14.8104C2.61081 14.9275 2.83767 14.9926 3.07003 15C3.20886 14.9997 3.34694 14.9795 3.48003 14.94L7.61003 13.19C7.73611 13.1498 7.86769 13.1296 8.00003 13.13C8.13557 13.1304 8.27033 13.1506 8.40003 13.19L12.52 14.94C12.6531 14.9795 12.7912 14.9997 12.93 15C13.1624 14.9926 13.3892 14.9275 13.5901 14.8104C13.791 14.6934 13.9596 14.5282 14.0806 14.3298C14.2017 14.1313 14.2714 13.9058 14.2835 13.6737C14.2957 13.4415 14.2498 13.21 14.15 13L8.62003 1.38001C8.56231 1.26523 8.47369 1.16884 8.36415 1.10171C8.25461 1.03457 8.1285 0.999347 8.00003 1.00001Z" fill="#0F1621"/>
</svg>

<svg xmlns="http://www.w3.org/2000/svg" width="16" height="16" viewBox="0 0 16 16"><rect width="16" height="16" style="fill:none"/><path d="M8,3.56l4.74,9.82L9,11.81l-.1-.05-.11,0A3.06,3.06,0,0,0,8,11.63ZM8,1a.69.69,0,0,0-.62.38L1.85,13a1.4,1.4,0,0,0,1.22,2,1.45,1.45,0,0,0,.41-.06l4.13-1.75A1.27,1.27,0,0,1,8,13.13a1.39,1.39,0,0,1,.4.06l4.12,1.75a1.45,1.45,0,0,0,.41.06,1.4,1.4,0,0,0,1.22-2L8.62,1.38A.69.69,0,0,0,8,1Z"/></svg>
